X: 146
T: Shawei
%%abc-version 2.0
%%abcx-abcm2ps-target-version 5.9.1 (29 Sep 2008)
%%abc-creator hum2abc beta
%%abcx-conversion-date 2013/10/02 07:52:29
%%abc-edited-by Helmut Schaffrath
%%humdrum-veritas 1370179006
%%humdrum-veritas-data 3522283709
%%continueall 1
%%barnumbers 0
L: 1/8
M: 2/4
K: Eb
e2G3/ B/ [I:setbarnb 1]| 
c d c B | 
e2G B | 
c2B c | 
e2z2 | 
e2c3/ B/ | 
G B c G | 
B4 | 
B> ce2 | 
c d c B | 
E2E C | 
E3F | 
G4 | 
z G G G | 
G2e2 | 
c BE2 | 
E> FB2 | 
G2(3F E C | 
B,4 |]  



